material/.icons/material/timeline-text.svg

<?xml version="1.0" encoding="UTF-8"?><!DOCTYPE svg PUBLIC "-//W3C//DTD SVG 1.1//EN" "http://www.w3.org/Graphics/SVG/1.1/DTD/svg11.dtd"><svg xmlns="http://www.w3.org/2000/svg" xmlns:xlink="http://www.w3.org/1999/xlink" version="1.1" id="mdi-timeline-text" width="24" height="24" viewBox="0 0 24 24"><path d="M4 2V8H2V2H4M2 22H4V16H2V22M5 12C5 10.9 4.11 10 3 10C1.9 10 1 10.9 1 12C1 13.11 1.9 14 3 14C4.11 14 5 13.11 5 12M24 6V18C24 19.11 23.11 20 22 20H10C8.9 20 8 19.11 8 18V14L6 12L8 10V6C8 4.89 8.9 4 10 4H22C23.11 4 24 4.89 24 6M19 13H11V15H19V13M21 9H11V11H21V9Z" /></svg>

<svg xmlns="http://www.w3.org/2000/svg" viewBox="0 0 24 24"><path d="M4 2v6H2V2h2M2 22h2v-6H2v6m3-10a2 2 0 10-2 2c1.11 0 2-.89 2-2m19-6v12c0 1.11-.89 2-2 2H10a2 2 0 01-2-2v-4l-2-2 2-2V6a2 2 0 012-2h12c1.11 0 2 .89 2 2m-5 7h-8v2h8v-2m2-4H11v2h10V9z"/></svg>
